X:1
T:Peccantem me
T:Peccantem me
T:Orlande de Lassus
C:Orlande de Lassus
%%score [ 1 2 [ 3 4 ] ]
L:1/8
Q:1/4=80
M:2/2
K:F
V:1 treble nm="Superius" snm="S"
V:2 treble nm="Altus" snm="A"
V:3 treble-8 nm="Tenor 1" snm="T 1"
V:4 treble-8 nm="Tenor 2" snm="T 2"
V:1
 z8 | z8 | z8 | z8 | z8 | z8 | z4 d4- | d4 _e4 | c4 d4- | d2 c2 B4- | B2 A2 A2 A2 | =B2 B2 c4 | %12
w: ||||||Pec-|* can-|tem me|_ quo- ti-|* di- e, quo-|ti- di- e,|
 z4 G4- | G2 g4 f2 | e2 f2 fe dc | d3 e f2 e2 | z2 d4 g2- | g2 f4 d2 | e2 f3 e d2- | d2 c2 d4 | %20
w: et|_ non me|pe- ni- ten- * * *|* * * tem,|et non|_ me pe-|ni- ten- * *|* * tem.|
 z4 z2 B2- | B2 B2 B4- | B4 c2 c2 | d2 f3 e dc | d2 c2 z2 G2 | G2 B4 A2 | G2 G2 A4- | A8- | A4 F4 | %29
w: Ti-|* mor mor-|* tis con-|tur- bat _ _ _|_ me, ti-|mor mor- tis|con- tur- bat|_|* me,|
 z4 z2 F2 | G2 G4 F2 | G4 F4 | z2 G2 B2 B2- | B2 G2 B4 | A4 z4 | z8 | B6 A2 | G2 G2 A3 A | %38
w: qui-|a in in-|fer- no,|qui- a in|_ in- fer-|no||nul- la|est re- dem- pti-|
 c2 c2 B2 A2 | c2 d4 c2 | d4 z4 | z2 B4 A2- | A2 G4 B2- | B2 A4 G2 | A4 z2 A2- | A2 A2 A2 A2 | %46
w: o, nul- la est|re- dem- pti-|o|nul- la|_ est re-|* dem- pti-|o, mi-|* se- re- re|
 A2 A4 B2- | B2 AG B2 A2 | d6 d2 | d2 d2 d2 d2 | _e4 d4 | z2 d4 B2- | B2 c2 d4- | d4 z2 A2 | %54
w: me- i, de-|* * * * us,|mi- se-|re- re me- i,|de- us,|et sal-|* va me,|_ et|
 B2 B4 G2 | z2 A4 A2 | A2 A2 A2 A2 | B3 A GA B2- | B2 A2 B2 d2- | d2 c2 AB cA | Bc d4 c2 | %61
w: sal- va me,|mi- se-|re- re me- i,|de- * * * *|* * us, et|_ sal- * * * *|* * * va|
 d2 D2 DE FG | AG G4 F2 | G8 |] %64
w: me, et sal- * * *|* * * va|me.|
V:2
 A8 | G4 B4 | A2 B4 G2- |"^b" GF GE F2 G2 | A2 A,2 B,2 A,2- | A,G, G,3 A,B,C |"^b" DCDE F2 C2 | %7
w: Pec-|can- tem|me quo- ti-|* * * * * di-|e, pec- can- *|* * tem _ _ _|_ _ _ _ _ me|
 G4 G3 F | G2 A2 D2 F2 | B2 G4 G2- | G2 ^FE F2 F2 | G3 F E2 E2 | D4 z4 | z2 C2 c4- | c2 B2 A2 B2 | %15
w: quo- ti- *|* di- e, pec-|can- tem me|_ _ _ _ quo-|ti- * * di-|e,|et non|_ me pe- ni-|
 B4 A4 | D4 B4 | A2 DE FG A2 | A3 G A2 B2 | A4 z2 F2- | F2 F2 D4- | D8 | _E2 E4 E2 | D2 D2 z2 B2- | %24
w: ten- *|tem, et|non me _ _ _ pe-|ni- * * ten-|tem. Ti-|* mor mor-||tis con- tur-|bat me, ti-|
 B2 A2 B2 B2- | B2 G4 F2 | D2 C4 F2 | FEDC DC F2 | E4 D4 | z4 D4 | _E2 E4 D2 | _E4 D2 D2 | %32
w: * mor mor- tis|_ con- tur-|||bat me,|qui-|a in in-|fer- no, qui-|
 G2 G4 F2 | GA B3 A G2- | G2 F2 G4 | z4 _E4- | E2 D2 C4 | C4 F2 F2 | C2 G4 F2 | E2 D2 A3 G | %40
w: a in in-|fer- * * * *|* * no|nul-|* la est|re- dem- pti-|o, nul- la|est re- dem- *|
 F2 F2 D2 F2 | _E2 D4 C2 | c3 c B2 G2 | F2 D2 D4 | E3 E F4- | F4 D4- | D2 D2 F2 D2 | G6 F2 | %48
w: * pti- o, nul-|la est re-|dem- pti- o, nul-|la est re-|dem- pti- o,|_ mi-|* se- re- re|me- i,|
 B4 A2 DE | FG A2 B4 | G3 A B2 AG | A4 B2 G2 | GF GA B2 B2 | A2 A2 AG FE | F2 G2 F2 D2 | %55
w: de- us, et _|_ _ _ sal-||ve me, et|sal- * * * * ve|me, et sal- * * *|* va me, et|
 E2 E2 ^F4 | ^F3 F F2 F2 | G2 G2 B2 G2 | z2 F2 D3 E | FG AB c2 A2 | G2 G2 E4 | F4 F2 B,2 | E4 D4 | %63
w: sal- va me,|mi- se- re- re|me- i, de- us,|et sal- *|* * * * * va|me, et sal-|va me, et|sal- va|
 D8 |] %64
w: me.|
V:3
 z8 | z4 d4- | d4 _e4 | c4 d2 c2 | f2 f2 d2 f2- | f2 e2 g4 |"^b" f3 e d2 G2 |"^b" =B2 B2 c3 d | %8
w: |Pec-|* can-|tem me quo-|ti- di- e, pec-|* can- tem|me quo- ti- di-|e, quo- ti- di-|
 e2 f4 d2 | g2 _e4 d2 | d6 d2 | G2 G2 g4- | g2 f4 e2- | e2 e2 a4 | a2 d4 g2- | g2 f2 d2 e2 | %16
w: e, pec- can-|tem me quo-|ti- di-|e, et non|_ me pe-|* ni- ten-|tem, et non|_ me pe- ni-|
 f4 g2 d2- | d2 a3 g f2 | e2 d2 f2 gf | ed e2 d4- | d4 f4- | f4 g2 g2- | g2 G2 G2 A2 | %23
w: ten- tem, et|_ non _ _|pe- ni- ten- * *|* * * tem.|_ Ti-|* mor mor-|* tis con- tur-|
"^b" B3 c de f2 | f2 f2 _e2 d2 | G4 d4- | d2 e2 f2 c2 | d2 f3 e d2- | d2 c2 d2 d2 | f2 f4 B2 | %30
w: * * * * bat|me, con- tur- bat|ma, ti-|* mor mor- tis|con- tur- * *|* bat me, qui-|a in in-|
 B4 B4 | z2 G2 B2 B2- | BA B2 G2 d2 | B3 c d4 | z2 d4 c2 | B4 c2 g2- | g2 f2 f2 f2- | f2 e2 d2 c2 | %38
w: fer- no,|qui- a in|_ _ _ in- fer-|* * no,|nul- la|est re- dem-|* pti- o, nul-|* la est re-|
 A2 G2 d4 | z2 f4 e2 | d3 e f2 c2 | g2 g2 f2 f2- | f2 e2 d2 d2- | d2 f3 e d2- |"^#" d2 c2 d4- | %45
w: dem- pti- o,|nul- la|est _ _ re-|dem- pti- o, nul-|* la est re-|* dem- * *|* pti- o,|
 d4 f4- | f2 f2 d2 f2 | B2 c2 d4 | GA Bc de fg | a2 f4 g2- | gc g4 ^fe | ^f2 f2 g2 d2 | %52
w: _ mi-|* se- re- re|me- i, de-||us, et sal-||* va me, et|
 _e2 e2 d2 g2- | g2 f2 fe dc | B2 G2 B2 B2 | A2 A2 z2 d2- | d2 d2 d2 d2 | d2 d2 _e3 d | c4 B4 | %59
w: sal- va me, mi-|* se- re- * * *|* re me- i,|de- us, mi-|* se- re- re|me- i, de- *|* us,|
 z2 A2 F4 | G4 A4- | A2 A2 Bc d2 | c3 B A4 | G8 |] %64
w: et sal-|va me,|_ et sal- * *|* * va|me.|
V:4
 z8 | z8 | z8 | z8 | D8 | C4 _E4 | D2 B,2 B3 A | G2 G2 C2 c2- | c2 A2 B4 | G2 C2 G3 G | D4 z2 D2 | %11
w: ||||Pec-|can- tem|me quo- ti- *|* di- e, pec-|* can- tem|me quo- ti- di-|e, et|
 d4 c4 | B2 B2 c4 | C4 z4 | z4 z2 G2- | G2 d4 c2 | B2 B2 G4 | D2 D2 d4 |"^b" ^c2 d4 G2 | A4 D4 | %20
w: non me|pe- ni- ten-|tem,|et|_ non me|pe- ni- ten-|tem, et non|me pe- ni-|ten- tem.|
 B6 B2 | B3 A G3 F | _E3 D C4 | B,4 B4- | B2 F2 G3 F | _E4 D2 d2 | =B2 c2 F4 | z8 | A4 B2 B2- | %29
w: Ti- mor|mor- * * *||tis, ti-|* mor mor- *|* tis con-|tur- bat me,||qui- a in|
 B2 A2 B4 | _E4 z4 | z4 z2 B,2 |"^b""^b" E2 E4 D2 |"^b" E4 D4- |"^b" D4 E4- | E2 D2 C2 C2 | %36
w: _ in- fer-|no,|qui-|a in in-|fer- no,|_ nul-|* la est re-|
 G2 B2 F4 | z4 z2 F2- | F2 E2 D2 D2 | A2 B2 A4 | z2 B4 A2 |"^b""^b" G3 F/E/ DE FG | AB c2 G4 | %43
w: dem- pti- o,|nul-|* la est re-|dem- pti- o,|nul- la|est _ _ _ _ _ _|_ _ _ re-|
 d3 c B2 B2 | A4 z4 | D6 D2 | D2 D2 D2 D2 | _E4 D4 | z8 | d4 B4 | c4 d4 | D4 G3 F | _E2 C2 G4 | %53
w: dem- * * pti-|o,|mi- se-|re- re me- i,|de- us,||et sal-|va me,|et sal- *|* va me,|
 d6 d2 | d2 d2 d2 d2 | ^c4 d4 | D4 z4 |"^#" G4 _E4 | F4 G4 | z8 | z8 | D4 B,4 | C4 D4 | G,8 |] %64
w: mi- se-|re- re me- i,|de- *|us,|et sal-|va me,|||et sal-|va _|me|

